X:1
T:Just as the Tide was Flowing
B:Marrowbones, Ed Frank Purslow, EFDS, 1965
S:Walter Diment, Cheddington, Dorset. July 1906
Z:Hammond D.570
F:http://www.folkinfo/songs
M:4/4
L:1/8
K:Bb
(d3/2c/) |B2 A2 G2 F2 |B2 B2 c2 B2 |(de) f2 d2 cB |
w:One_ morn-ing in the month of May, Down by_ a roll-ing_
(G3A) B2 (d3/2c/) |B2 A2 G2 F2 |B2 B2 c2 B2 |(de) f2 (dc) (BA) |
w:ri--ver A_ jol-ly sail-or I did stray, When I_ be-held_ some_
G3 A B2 (de) |f2 f2 f2 (de) |f2 f2 f2 (ef) |g2 f2 d2 (cB) |
w:lov--ver So_ care-less-ly a--long did stray, A-- pick-ing of the-
(dc) (BA) G2 d2 |B2 G2 G2 F2 |B2 B2 c2 (Bc) |(de) f2 (dc) BA |
w:dai-_ sies_ gay, So sweet, she sung a roun-de-lay, Just_ as_ the ti-de was a-
(G3A) B2  |]
w:flow_ ing
